X: 5
T:Mairie's Wedding
% Nottingham Music Database
S:Kay Graham, via EF
M:4/4
L:1/4
K:D
P:A
d/2B/2|"D"A3/2A/2 AB|"D"de f2|"G"ed Bd|"A7"fe f2|"D"A3/2A/2 AB|"D"de f2|\
"G"ed BG|"A7"A3:|
P:B
f/2g/2|"D"a3/2a/2 ab|"Bm"ag f2|"E7"ed Bd|"A"fe f2|"F#m"a3/2a/2 ab|"Bm"ag f2|\
"Em"ed BG|"A7"A3:|<end>
<start>
